**kern	**silbe	**harmony	**phrase	**leadinstrument	**rhyme	**timestamp	**harte
*ICvox	*	*M4/4	*	*	*	*	*M4/4
*VRlead	*	*	*	*	*	*	*
*Hstimme	*	*	*	*	*	*	*
*B-:	*	*B-:	*	*	*	*	*B-:
*M4/4	*	*	*	*	*	*	*
*clefG2	*	*	*	*	*	*	*
r;	.	1r;	.	r	.	0	N.C.
=1	=1	=1	=1	=1	=1	=1	=1
*>Letter>A	*>Letter>A	*>Letter>A	*>Letter>A	*>Letter>A	*>Letter>A	*>Letter>A	*>Letter>A
*>Label>Intro	*>Label>Intro	*>Label>Intro	*>Label>Intro	*>Label>Intro	*>Label>Intro	*>Label>Intro	*>Label>Intro
1r	.	2B-M	newline	guitar	.	1.348	B-:maj
.	.	2FM	.	guitar	.	2.315	F:maj
=2	=2	=2	=2	=2	=2	=2	=2
1r	.	2FMm	.	guitar	.	3.281	F:9/5
.	.	2E-M	.	guitar	.	4.248	E-:maj
=3	=3	=3	=3	=3	=3	=3	=3
1r	.	2B-M	.	guitar	.	5.215	B-:maj
.	.	2FM	.	guitar	.	6.182	F:maj
=4	=4	=4	=4	=4	=4	=4	=4
1r	.	2FMm	.	guitar	.	7.149	F:9/5
.	.	2E-M	.	guitar	.	8.116	E-:maj
=5	=5	=5	=5	=5	=5	=5	=5
1r	.	2B-M	newline	guitar	.	9.082	B-:maj
.	.	2FM	.	guitar	.	10.054	F:maj
=6	=6	=6	=6	=6	=6	=6	=6
1r	.	2FMm	.	guitar	.	11.026	F:9/5
.	.	2E-M	.	guitar	.	11.997	E-:maj
=7	=7	=7	=7	=7	=7	=7	=7
1r	.	2B-M	.	guitar	.	12.969	B-:maj
.	.	2FM	.	guitar	.	13.941	F:maj
=8	=8	=8	=8	=8	=8	=8	=8
1r	.	2FMm	.	guitar	.	14.912	F:9/5
.	.	2E-M	.	guitar	.	15.884	E-:maj
=9	=9	=9	=9	=9	=9	=9	=9
*>Letter>A	*>Letter>A	*>Letter>A	*>Letter>A	*>Letter>A	*>Letter>A	*>Letter>A	*>Letter>A
*>Label>Verse	*>Label>Verse	*>Label>Verse	*>Label>Verse	*>Label>Verse	*>Label>Verse	*>Label>Verse	*>Label>Verse
8r	.	2B-M	newline	voice	.	16.856	B-:maj
8F	I	.	.	.	.	.	.
8B-	was	.	.	.	.	.	.
8d	so	.	.	.	.	.	.
4.c	young	2FM	.	voice	.	17.823	F:maj
8B-	when	.	.	.	.	.	.
=10	=10	=10	=10	=10	=10	=10	=10
8c	I	2FMm	.	voice	.	18.791	F:9/5
8c	was	.	.	.	.	.	.
8B-	born.	.	.	.	A	.	.
[8G	_	.	.	.	.	.	.
4G]	_	2E-M	.	voice	.	19.758	E-:maj
4r	.	.	.	.	.	.	.
=11	=11	=11	=11	=11	=11	=11	=11
8r	.	2B-M	.	voice	.	20.726	B-:maj
8F	My	.	.	.	.	.	.
8G	eyes	.	.	.	.	.	.
8B-	could	.	.	.	.	.	.
8c	not	2FM	.	voice	.	21.693	F:maj
8c	yet	.	.	.	.	.	.
8r	.	.	.	.	.	.	.
8B-	see.	.	.	.	B	.	.
=12	=12	=12	=12	=12	=12	=12	=12
4G	_	2FMm	.	voice	.	22.66	F:9/5
4r	.	.	.	.	.	.	.
2r	.	2E-M	.	voice	.	23.628	E-:maj
=13	=13	=13	=13	=13	=13	=13	=13
8r	.	2B-M	newline	voice	.	24.595	B-:maj
8F	And	.	.	.	.	.	.
8d	by	.	.	.	.	.	.
8d	the	.	.	.	.	.	.
4c	time	2FM	.	voice	.	25.563	F:maj
8r	.	.	.	.	.	.	.
8B-	of	.	.	.	.	.	.
=14	=14	=14	=14	=14	=14	=14	=14
8c	my	2FMm	.	voice	.	26.53	F:9/5
4c	first	.	.	.	.	.	.
8B-	dawn.	.	.	.	A	.	.
4G	_	2E-M	.	voice	.	27.498	E-:maj
4r	.	.	.	.	.	.	.
=15	=15	=15	=15	=15	=15	=15	=15
8r	.	2B-M	.	voice	.	28.465	B-:maj
8F	Some-	.	.	.	.	.	.
8G	-bo-	.	.	.	.	.	.
8B-	-dy	.	.	.	.	.	.
4c	hol-	2FM	.	voice	.	29.432	F:maj
8G	-ding	.	.	.	.	.	.
[8G	me,	.	.	.	B	.	.
=16	=16	=16	=16	=16	=16	=16	=16
8G]	_	2FMm	.	voice	.	30.4	F:9/5
4.r	.	.	.	.	.	.	.
8r	.	2E-M	.	voice	.	31.367	E-:maj
8G	they	.	.	.	.	.	.
8G	said	.	.	.	.	.	.
8F	I	.	.	.	.	.	.
=17	=17	=17	=17	=17	=17	=17	=17
*>Letter>B	*>Letter>B	*>Letter>B	*>Letter>B	*>Letter>B	*>Letter>B	*>Letter>B	*>Letter>B
*>Label>Chorus	*>Label>Chorus	*>Label>Chorus	*>Label>Chorus	*>Label>Chorus	*>Label>Chorus	*>Label>Chorus	*>Label>Chorus
8r	.	2B-M	newline	voice	.	32.335	B-:maj
8d	wel-	.	.	.	.	.	.
8d	-come	.	.	.	.	.	.
[8c	you	.	.	.	C	.	.
4c]	_	2FM	.	voice	.	33.321	F:maj
8r	.	.	.	.	.	.	.
8B-	to	.	.	.	.	.	.
=18	=18	=18	=18	=18	=18	=18	=18
8B-	Crack-	4Gm	.	voice	.	34.308	G:min
8B-	-er-	.	.	.	.	.	.
4A	-box	4FM	.	voice	.	34.801	F:maj
8G	Pa-	2E-M	.	voice	.	35.295	E-:maj
4.B-	-lace.	.	.	.	.	.	.
=19	=19	=19	=19	=19	=19	=19	=19
8r	.	2B-M	.	voice	.	36.281	B-:maj
8B-	We've	.	.	.	.	.	.
8B-	been	.	.	.	.	.	.
8B-	ex-	.	.	.	.	.	.
8c	-pec-	2FM	.	voice	.	37.268	F:maj
4B-	-ting	.	.	.	.	.	.
[8d	you.	.	.	.	C	.	.
=20	=20	=20	=20	=20	=20	=20	=20
8d]	_	1Dm	.	voice	.	38.254	D:min
8f	_	.	.	.	.	.	.
2d	_	.	.	.	.	.	.
4r	.	.	.	.	.	.	.
=21	=21	=21	=21	=21	=21	=21	=21
8r	.	2E-M	newline	voice	.	40.227	E-:maj
8B-	You	.	.	.	.	.	.
8B-	bring	.	.	.	.	.	.
8B-	such	.	.	.	.	.	.
4.c	joy	2FM	.	voice	.	41.223	F:maj
8B-	in	.	.	.	.	.	.
=22	=22	=22	=22	=22	=22	=22	=22
8B-	Crack-	4Gm	.	voice	.	42.218	G:min
8B-	-er-	.	.	.	.	.	.
4A	-box	4FM	.	voice	.	42.715	F:maj
8G	Pa-	2E-M	.	voice	.	43.213	E-:maj
4B-	-lace.	.	.	.	.	.	.
[8B-	No	.	.	.	.	.	.
=23	=23	=23	=23	=23	=23	=23	=23
8B-]	_	1E-mm	.	voice	.	44.208	E-:min7
4B-	mat-	.	.	.	.	.	.
8B-	-ter	.	.	.	.	.	.
8G-	where	.	.	.	.	.	.
4A-	you	.	.	.	.	.	.
[8B-	roam	.	.	.	.	.	.
=24	=24	=24	=24	=24	=24	=24	=24
8B-]	_	1E-mm	.	voice	.	46.199	E-:min7
8d-	know	.	.	.	.	.	.
8d-	our	.	.	.	.	.	.
[8d-	love	.	.	.	.	.	.
8d-]	_	.	.	.	.	.	.
4d-	is	.	.	.	.	.	.
[8c	true.	.	.	.	C	.	.
=25	=25	=25	=25	=25	=25	=25	=25
*>Letter>C	*>Letter>C	*>Letter>C	*>Letter>C	*>Letter>C	*>Letter>C	*>Letter>C	*>Letter>C
*>Label>Interlude	*>Label>Interlude	*>Label>Interlude	*>Label>Interlude	*>Label>Interlude	*>Label>Interlude	*>Label>Interlude	*>Label>Interlude
8c]	_	2B-M	newline	guitar	.	48.189	B-:maj
4.B-	_	.	.	.	.	.	.
2r	.	2FM	.	guitar	.	49.172	F:maj
=26	=26	=26	=26	=26	=26	=26	=26
1r	.	4Gm	.	guitar	.	50.155	G:min
.	.	4FM	.	guitar	.	50.646	F:maj
.	.	2E-M	.	guitar	.	51.137	E-:maj
=27	=27	=27	=27	=27	=27	=27	=27
1r	.	1E-mm	.	guitar	.	52.12	E-:min7
=28	=28	=28	=28	=28	=28	=28	=28
1r	.	1E-mm	.	guitar	.	54.086	E-:min7
=29	=29	=29	=29	=29	=29	=29	=29
*>Letter>A	*>Letter>A	*>Letter>A	*>Letter>A	*>Letter>A	*>Letter>A	*>Letter>A	*>Letter>A
*>Label>Verse	*>Label>Verse	*>Label>Verse	*>Label>Verse	*>Label>Verse	*>Label>Verse	*>Label>Verse	*>Label>Verse
8r	.	2B-M	newline	voice	.	56.051	B-:maj
8F	While	.	.	.	.	.	.
8d	gro-	.	.	.	.	.	.
8d	-wing	.	.	.	.	.	.
4c	up	2FM	.	voice	.	57.042	F:maj
8r	.	.	.	.	.	.	.
8B-	or	.	.	.	.	.	.
=30	=30	=30	=30	=30	=30	=30	=30
8c	try-	2FMm	.	voice	.	58.032	F:9/5
4c	-ing	.	.	.	.	.	.
8B-	to,	.	.	.	C	.	.
4G	_	2E-M	.	voice	.	59.023	E-:maj
4r	.	.	.	.	.	.	.
=31	=31	=31	=31	=31	=31	=31	=31
8r	.	2B-M	.	voice	.	60.014	B-:maj
8F	not	.	.	.	.	.	.
8G	kno-	.	.	.	.	.	.
8B-	-wing	.	.	.	.	.	.
4c	where	2FM	.	voice	.	61.004	F:maj
8G	to	.	.	.	.	.	.
[8G	start.	.	.	.	D	.	.
=32	=32	=32	=32	=32	=32	=32	=32
8G]	_	2FMm	.	voice	.	61.995	F:9/5
8r	.	.	.	.	.	.	.
4r	.	.	.	.	.	.	.
2r	.	2E-M	.	voice	.	62.986	E-:maj
=33	=33	=33	=33	=33	=33	=33	=33
8r	.	2B-M	newline	voice	.	63.976	B-:maj
8F	I	.	.	.	.	.	.
8d	looked	.	.	.	.	.	.
8d	a-	.	.	.	.	.	.
4.c	-round	2FM	.	voice	.	64.944	F:maj
8B-	for	.	.	.	.	.	.
=34	=34	=34	=34	=34	=34	=34	=34
8c	some-	2FMm	.	voice	.	65.912	F:9/5
4c	-one	.	.	.	.	.	.
8B-	who	.	.	.	C	.	.
4G	_	2E-M	.	voice	.	66.88	E-:maj
4r	.	.	.	.	.	.	.
=35	=35	=35	=35	=35	=35	=35	=35
8r	.	2B-M	.	voice	.	67.848	B-:maj
8F	may	.	.	.	.	.	.
8G	help	.	.	.	.	.	.
8B-	re-	.	.	.	.	.	.
4c	-veal	2FM	.	voice	.	68.816	F:maj
8G	my	.	.	.	.	.	.
[8G	heart.	.	.	.	D	.	.
=36	=36	=36	=36	=36	=36	=36	=36
8G]	_	2FMm	.	voice	.	69.784	F:9/5
8r	.	.	.	.	.	.	.
8r	.	.	.	.	.	.	.
8G	And	.	.	.	.	.	.
16G	some-	2E-M	.	voice	.	70.752	E-:maj
16G	-one	.	.	.	.	.	.
[8G	said	.	.	.	.	.	.
8G]	_	.	.	.	.	.	.
[8F	while	.	.	.	.	.	.
=37	=37	=37	=37	=37	=37	=37	=37
*>Letter>B	*>Letter>B	*>Letter>B	*>Letter>B	*>Letter>B	*>Letter>B	*>Letter>B	*>Letter>B
*>Label>Chorus	*>Label>Chorus	*>Label>Chorus	*>Label>Chorus	*>Label>Chorus	*>Label>Chorus	*>Label>Chorus	*>Label>Chorus
8F]	_	2B-M	newline	voice	.	71.72	B-:maj
8d	you're	.	.	.	.	.	.
8d	a	.	.	.	.	.	.
[8c	part	.	.	.	D	.	.
4c]	_	2FM	.	voice	.	72.705	F:maj
8r	.	.	.	.	.	.	.
8B-	of	.	.	.	.	.	.
=38	=38	=38	=38	=38	=38	=38	=38
8B-	Cra-	4Gm	.	voice	.	73.691	G:min
8B-	-cer-	.	.	.	.	.	.
4A	-box	4FM	.	voice	.	74.184	F:maj
8G	Pa-	2E-M	.	voice	.	74.676	E-:maj
4.B-	-lace	.	.	.	.	.	.
=39	=39	=39	=39	=39	=39	=39	=39
8r	.	2B-M	.	voice	.	75.662	B-:maj
8B-	do	.	.	.	.	.	.
8B-	what	.	.	.	.	.	.
8B-	the	.	.	.	.	.	.
8c	rest	2FM	.	voice	.	76.647	F:maj
4B-	all	.	.	.	.	.	.
8d	do	.	.	.	C	.	.
=40	=40	=40	=40	=40	=40	=40	=40
8r	.	1Dm	.	voice	.	77.633	D:min
8f	_	.	.	.	.	.	.
2d	_	.	.	.	.	.	.
4r	.	.	.	.	.	.	.
=41	=41	=41	=41	=41	=41	=41	=41
8r	.	2E-M	newline	voice	.	79.604	E-:maj
8B-	or	.	.	.	.	.	.
8B-	face	.	.	.	.	.	.
8B-	the	.	.	.	.	.	.
4c	fact	2FM	.	voice	.	80.589	F:maj
8r	.	.	.	.	.	.	.
8B-	that	.	.	.	.	.	.
=42	=42	=42	=42	=42	=42	=42	=42
8B-	Crack-	4Gm	.	voice	.	81.574	G:min
8B-	-er-	.	.	.	.	.	.
4A	-box	4FM	.	voice	.	82.066	F:maj
8G	Pa-	2E-M	.	voice	.	82.559	E-:maj
4B-	-lace	.	.	.	.	.	.
[8B-	may	.	.	.	.	.	.
=43	=43	=43	=43	=43	=43	=43	=43
8B-]	_	1E-mm	.	voice	.	83.544	E-:min7
4B-	have	.	.	.	.	.	.
8B-	no	.	.	.	.	.	.
8G-	o-	.	.	.	.	.	.
4A-	-ther	.	.	.	.	.	.
[8B-	choice	.	.	.	.	.	.
=44	=44	=44	=44	=44	=44	=44	=44
8B-]	_	1E-mm	.	voice	.	85.513	E-:min7
8d-	than	.	.	.	.	.	.
8d-	to	.	.	.	.	.	.
8d-	de-	.	.	.	.	.	.
[8d-	-port	.	.	.	D	.	.
4d-]	_	.	.	.	.	.	.
8c	you	.	.	.	C	.	.
=45	=45	=45	=45	=45	=45	=45	=45
*>Letter>C	*>Letter>C	*>Letter>C	*>Letter>C	*>Letter>C	*>Letter>C	*>Letter>C	*>Letter>C
*>Label>Interlude	*>Label>Interlude	*>Label>Interlude	*>Label>Interlude	*>Label>Interlude	*>Label>Interlude	*>Label>Interlude	*>Label>Interlude
4B-	_	2B-M	newline	guitar	.	87.483	B-:maj
4r	.	.	.	.	.	.	.
2r	.	2FM	.	guitar	.	88.469	F:maj
=46	=46	=46	=46	=46	=46	=46	=46
1r	.	4Gm	.	guitar	.	89.456	G:min
.	.	4FM	.	guitar	.	89.949	F:maj
.	.	2E-M	.	guitar	.	90.443	E-:maj
=47	=47	=47	=47	=47	=47	=47	=47
1r	.	1E-mm	.	guitar	.	91.429	E-:min7
=48	=48	=48	=48	=48	=48	=48	=48
1r	.	1E-mm	.	guitar	.	93.402	E-:min7
=49	=49	=49	=49	=49	=49	=49	=49
*>Letter>D	*>Letter>D	*>Letter>D	*>Letter>D	*>Letter>D	*>Letter>D	*>Letter>D	*>Letter>D
*>Label>Solo	*>Label>Solo	*>Label>Solo	*>Label>Solo	*>Label>Solo	*>Label>Solo	*>Label>Solo	*>Label>Solo
1r	.	2B-M	newline	synth	.	95.376	B-:maj
.	.	2FM	.	synth	.	96.341	F:maj
=50	=50	=50	=50	=50	=50	=50	=50
1r	.	2Cmm	.	synth	.	97.305	C:min11
.	.	2E-M	.	synth	.	98.27	E-:maj
=51	=51	=51	=51	=51	=51	=51	=51
1r	.	2B-M	.	synth	.	99.235	B-:maj
.	.	2FM	.	synth	.	100.2	F:maj
=52	=52	=52	=52	=52	=52	=52	=52
1r	.	2Cmm	.	synth	.	101.165	C:min11
.	.	2E-M	.	synth	.	102.13	E-:maj
=53	=53	=53	=53	=53	=53	=53	=53
1r	.	2B-M	newline	synth	.	103.095	B-:maj
.	.	2FM	.	synth	.	104.06	F:maj
=54	=54	=54	=54	=54	=54	=54	=54
1r	.	2Cmm	.	synth	.	105.026	C:min11
.	.	2E-M	.	synth	.	105.991	E-:maj
=55	=55	=55	=55	=55	=55	=55	=55
1r	.	2B-M	.	synth	.	106.957	B-:maj
.	.	2FM	.	synth	.	107.922	F:maj
=56	=56	=56	=56	=56	=56	=56	=56
2r	.	2Cmm	.	synth	.	108.887	C:min11
8r	.	2E-M	.	synth	.	109.853	E-:maj
8F	And	.	.	.	.	.	.
4F	I	.	.	.	.	.	.
=57	=57	=57	=57	=57	=57	=57	=57
*>Letter>B	*>Letter>B	*>Letter>B	*>Letter>B	*>Letter>B	*>Letter>B	*>Letter>B	*>Letter>B
*>Label>Chorus	*>Label>Chorus	*>Label>Chorus	*>Label>Chorus	*>Label>Chorus	*>Label>Chorus	*>Label>Chorus	*>Label>Chorus
8r	.	2B-M	newline	voice	.	110.818	B-:maj
8d	wel-	.	.	.	.	.	.
8d	-come	.	.	.	.	.	.
[8c	you	.	.	.	C	.	.
4c]	_	2FM	.	voice	.	111.798	F:maj
8r	.	.	.	.	.	.	.
8B-	to	.	.	.	.	.	.
=58	=58	=58	=58	=58	=58	=58	=58
8B-	Crack-	4Gm	.	voice	.	112.778	G:min
8B-	-er-	.	.	.	.	.	.
4A	-box	4FM	.	voice	.	113.268	F:maj
8G	Pa-	2E-M	.	voice	.	113.758	E-:maj
4.B-	-lace.	.	.	.	.	.	.
=59	=59	=59	=59	=59	=59	=59	=59
8r	.	2B-M	.	voice	.	114.737	B-:maj
8B-	We've	.	.	.	.	.	.
8B-	been	.	.	.	.	.	.
8B-	ex-	.	.	.	.	.	.
8c	-pec-	2FM	.	voice	.	115.717	F:maj
4B-	-ting	.	.	.	.	.	.
[8d	you.	.	.	.	C	.	.
=60	=60	=60	=60	=60	=60	=60	=60
8d]	_	1Dm	.	voice	.	116.697	D:min
8f	_	.	.	.	.	.	.
2d	_	.	.	.	.	.	.
4r	.	.	.	.	.	.	.
=61	=61	=61	=61	=61	=61	=61	=61
8r	.	2E-M	newline	voice	.	118.657	E-:maj
8B-	You	.	.	.	.	.	.
8B-	bring	.	.	.	.	.	.
8B-	such	.	.	.	.	.	.
4.c	joy	2FM	.	voice	.	119.648	F:maj
8B-	in	.	.	.	.	.	.
=62	=62	=62	=62	=62	=62	=62	=62
8B-	Crack-	4Gm	.	voice	.	120.64	G:min
8B-	-er-	.	.	.	.	.	.
4A	-box	4FM	.	voice	.	121.136	F:maj
8G	Pa-	2E-M	.	voice	.	121.631	E-:maj
4B-	-lace.	.	.	.	.	.	.
[8B-	No	.	.	.	.	.	.
=63	=63	=63	=63	=63	=63	=63	=63
8B-]	_	1E-mm	.	voice	.	122.623	E-:min7
8B-	mat-	.	.	.	.	.	.
4G-	-ter	.	.	.	.	.	.
8G-	where	.	.	.	.	.	.
4A-	you	.	.	.	.	.	.
[8B-	roam	.	.	.	.	.	.
=64	=64	=64	=64	=64	=64	=64	=64
8B-]	_	1E-mm	.	voice	.	124.606	E-:min7
8d-	know	.	.	.	.	.	.
8d-	our	.	.	.	.	.	.
[8d-	love	.	.	.	.	.	.
8d-]	_	.	.	.	.	.	.
4d-	is	.	.	.	.	.	.
[8c	true.	.	.	.	C	.	.
=65	=65	=65	=65	=65	=65	=65	=65
*>Letter>D2	*>Letter>D2	*>Letter>D2	*>Letter>D2	*>Letter>D2	*>Letter>D2	*>Letter>D2	*>Letter>D2
*>Label>Interlude	*>Label>Interlude	*>Label>Interlude	*>Label>Interlude	*>Label>Interlude	*>Label>Interlude	*>Label>Interlude	*>Label>Interlude
8c]	_	2B-M	newline	guitar	.	126.589	B-:maj
4.B-	_	.	.	.	.	.	.
2r	.	2FM	.	guitar	.	127.566	F:maj
=66	=66	=66	=66	=66	=66	=66	=66
1r	.	1Cmm	.	guitar	.	128.543	C:min11
=67	=67	=67	=67	=67	=67	=67	=67
1r	.	2B-M	.	guitar	.	130.496	B-:maj
.	.	2FM	.	guitar	.	131.473	F:maj
=68	=68	=68	=68	=68	=68	=68	=68
8r	.	1Cmm	.	guitar	.	132.45	C:min11
8B-	It's	.	.	.	.	.	.
4c	true,	.	.	.	.	.	.
8A	it's	.	.	.	.	.	.
8B-	true.	.	.	.	.	.	.
8A	_	.	.	.	.	.	.
8r	.	.	.	.	.	.	.
=69	=69	=69	=69	=69	=69	=69	=69
1r	.	2B-M	newline	guitar	.	134.404	B-:maj
.	.	2FM	.	guitar	.	135.369	F:maj
=70	=70	=70	=70	=70	=70	=70	=70
1r	.	1Cmm	.	guitar	.	136.335	C:min11
=71	=71	=71	=71	=71	=71	=71	=71
1r	.	2B-M	.	guitar	.	138.267	B-:maj
.	.	2FM	.	guitar	.	139.233	F:maj
=72	=72	=72	=72	=72	=72	=72	=72
1r	.	1Cmm	.	guitar	.	140.199	C:min11
=73	=73	=73	=73	=73	=73	=73	=73
*>Letter>A	*>Letter>A	*>Letter>A	*>Letter>A	*>Letter>A	*>Letter>A	*>Letter>A	*>Letter>A
*>Label>Verse	*>Label>Verse	*>Label>Verse	*>Label>Verse	*>Label>Verse	*>Label>Verse	*>Label>Verse	*>Label>Verse
8r	.	2B-M	newline	voice	.	142.131	B-:maj
8F	Some-	.	.	.	.	.	.
8d	-times	.	.	.	.	.	.
8d	are	.	.	.	.	.	.
4c	good,	2FM	.	voice	.	143.091	F:maj
8r	.	.	.	.	.	.	.
8B-	some-	.	.	.	.	.	.
=74	=74	=74	=74	=74	=74	=74	=74
8c	-times	2FMm	.	voice	.	144.051	F:9/5
8c	are	.	.	.	.	.	.
8B-	bad.	.	.	.	.	.	.
[8G	_	.	.	.	.	.	.
4G]	_	2E-M	.	voice	.	145.012	E-:maj
4r	.	.	.	.	.	.	.
=75	=75	=75	=75	=75	=75	=75	=75
8r	.	2B-M	.	voice	.	145.972	B-:maj
8F	That's	.	.	.	.	.	.
8G	all	.	.	.	.	.	.
8B-	a	.	.	.	.	.	.
4c	part	2FM	.	voice	.	146.932	F:maj
8G	of	.	.	.	.	.	.
[8G	life.	.	.	.	E	.	.
=76	=76	=76	=76	=76	=76	=76	=76
8G]	_	2FMm	.	voice	.	147.893	F:9/5
8r	.	.	.	.	.	.	.
4r	.	.	.	.	.	.	.
2r	.	2E-M	.	voice	.	148.853	E-:maj
=77	=77	=77	=77	=77	=77	=77	=77
8r	.	2B-M	newline	voice	.	149.813	B-:maj
8F	And	.	.	.	.	.	.
8d	stan-	.	.	.	.	.	.
8d	-ding	.	.	.	.	.	.
4.c	in	2FM	.	voice	.	150.776	F:maj
8B-	bet-	.	.	.	.	.	.
=78	=78	=78	=78	=78	=78	=78	=78
8c	-ween	2FMm	.	voice	.	151.739	F:9/5
4c	them	.	.	.	.	.	.
8B-	all.	.	.	.	.	.	.
4G	_	2E-M	.	voice	.	152.702	E-:maj
4r	.	.	.	.	.	.	.
=79	=79	=79	=79	=79	=79	=79	=79
8r	.	2B-M	.	voice	.	153.665	B-:maj
8F	I	.	.	.	.	.	.
8G	met	.	.	.	.	.	.
8B-	a	.	.	.	.	.	.
4c	Mis-	2FM	.	voice	.	154.628	F:maj
8G	-ter	.	.	.	.	.	.
[8G	Grief,	.	.	.	E	.	.
=80	=80	=80	=80	=80	=80	=80	=80
8G]	_	2FMm	.	voice	.	155.591	F:9/5
4.r	.	.	.	.	.	.	.
16G	and	2E-M	.	voice	.	156.553	E-:maj
16G	he	.	.	.	.	.	.
[8G	said	.	.	.	.	.	.
8G]	_	.	.	.	.	.	.
8F	I	.	.	.	.	.	.
=81	=81	=81	=81	=81	=81	=81	=81
*>Letter>B	*>Letter>B	*>Letter>B	*>Letter>B	*>Letter>B	*>Letter>B	*>Letter>B	*>Letter>B
*>Label>Chorus	*>Label>Chorus	*>Label>Chorus	*>Label>Chorus	*>Label>Chorus	*>Label>Chorus	*>Label>Chorus	*>Label>Chorus
8r	.	2B-M	newline	voice	.	157.516	B-:maj
8d	wel-	.	.	.	.	.	.
8d	-come	.	.	.	.	.	.
[8c	you	.	.	.	C	.	.
4c]	_	2FM	.	voice	.	158.498	F:maj
8r	.	.	.	.	.	.	.
8B-	to	.	.	.	.	.	.
=82	=82	=82	=82	=82	=82	=82	=82
8B-	Crack-	4Gm	.	voice	.	159.48	G:min
8B-	-er-	.	.	.	.	.	.
4A	-box	4FM	.	voice	.	159.971	F:maj
8G	Pa-	2E-M	.	voice	.	160.462	E-:maj
4.B-	-lace	.	.	.	.	.	.
=83	=83	=83	=83	=83	=83	=83	=83
8r	.	2B-M	.	voice	.	161.444	B-:maj
8B-	was	.	.	.	.	.	.
8B-	not	.	.	.	.	.	.
8B-	ex-	.	.	.	.	.	.
8c	-pec-	2FM	.	voice	.	162.425	F:maj
4B-	-ting	.	.	.	.	.	.
[8d	you.	.	.	.	C	.	.
=84	=84	=84	=84	=84	=84	=84	=84
8d]	_	1Dm	.	voice	.	163.407	D:min
8f	_	.	.	.	.	.	.
2d	_	.	.	.	.	.	.
4r	.	.	.	.	.	.	.
=85	=85	=85	=85	=85	=85	=85	=85
8r	.	2E-M	newline	voice	.	165.371	E-:maj
8B-	Let's	.	.	.	.	.	.
8B-	rap	.	.	.	F	.	.
8B-	and	.	.	.	.	.	.
4c	tap	2FM	.	voice	F	166.354	F:maj
8r	.	.	.	.	.	.	.
8B-	at	.	.	.	.	.	.
=86	=86	=86	=86	=86	=86	=86	=86
8B-	Crack-	4Gm	.	voice	.	167.338	G:min
8B-	-er-	.	.	.	.	.	.
4A	-box	4FM	.	voice	.	167.83	F:maj
8G	Pa-	2E-M	.	voice	.	168.322	E-:maj
4B-	-lace,	.	.	.	.	.	.
[8B-	know	.	.	.	.	.	.
=87	=87	=87	=87	=87	=87	=87	=87
8B-]	_	1E-mm	.	voice	.	169.305	E-:min7
4B-	that	.	.	.	.	.	.
8B-	the	.	.	.	.	.	.
8G-	Lord	.	.	.	.	.	.
4A-	is	.	.	.	.	.	.
[8B-	well	.	.	.	.	.	.
=88	=88	=88	=88	=88	=88	=88	=88
8B-]	_	1E-mm	.	voice	.	171.272	E-:min7
8d-	and	.	.	.	.	.	.
8d-	in-	.	.	.	.	.	.
[8d-	-side	.	.	.	.	.	.
8d-]	_	.	.	.	.	.	.
4d-	of	.	.	.	.	.	.
[8c	you.	.	.	.	C	.	.
=89	=89	=89	=89	=89	=89	=89	=89
*>Letter>C	*>Letter>C	*>Letter>C	*>Letter>C	*>Letter>C	*>Letter>C	*>Letter>C	*>Letter>C
*>Label>Interlude	*>Label>Interlude	*>Label>Interlude	*>Label>Interlude	*>Label>Interlude	*>Label>Interlude	*>Label>Interlude	*>Label>Interlude
8c]	_	2B-M	newline	guitar	.	173.24	B-:maj
4.B-	_	.	.	.	.	.	.
2r	.	2FM	.	guitar	.	174.202	F:maj
=90	=90	=90	=90	=90	=90	=90	=90
1r	.	4Gm	.	guitar	.	175.165	G:min
.	.	4FM	.	guitar	.	175.647	F:maj
.	.	2E-M	.	guitar	.	176.128	E-:maj
=91	=91	=91	=91	=91	=91	=91	=91
1r	.	1E-mm	.	guitar	.	177.091	E-:min7
=92	=92	=92	=92	=92	=92	=92	=92
2r	.	1E-mm	.	guitar	.	179.017	E-:min7
8r	.	.	.	.	.	.	.
8F	And	.	.	.	.	.	.
4F	we	.	.	.	.	.	.
=93	=93	=93	=93	=93	=93	=93	=93
*>Letter>B	*>Letter>B	*>Letter>B	*>Letter>B	*>Letter>B	*>Letter>B	*>Letter>B	*>Letter>B
*>Label>Chorus	*>Label>Chorus	*>Label>Chorus	*>Label>Chorus	*>Label>Chorus	*>Label>Chorus	*>Label>Chorus	*>Label>Chorus
8r	.	2B-M	newline	voice	.	180.942	B-:maj
8d	wel-	.	.	.	.	.	.
8d	-come	.	.	.	.	.	.
[8c	you	.	.	.	C	.	.
4c]	_	2FM	.	voice	.	181.909	F:maj
8r	.	.	.	.	.	.	.
8B-	to	.	.	.	.	.	.
=94	=94	=94	=94	=94	=94	=94	=94
8B-	Crack-	4Gm	.	voice	.	182.876	G:min
8B-	-er-	.	.	.	.	.	.
4A	-box	4FM	.	voice	.	183.36	F:maj
8G	Pa-	2E-M	.	voice	.	183.843	E-:maj
4.B-	-lace.	.	.	.	.	.	.
=95	=95	=95	=95	=95	=95	=95	=95
8r	.	2B-M	.	voice	.	184.81	B-:maj
8B-	We've	.	.	.	.	.	.
8B-	been	.	.	.	.	.	.
8B-	ex-	.	.	.	.	.	.
8c	-pec-	2FM	.	voice	.	185.777	F:maj
4B-	-ting	.	.	.	.	.	.
[8d	you.	.	.	.	C	.	.
=96	=96	=96	=96	=96	=96	=96	=96
8d]	_	1Dm	.	voice	.	186.744	D:min
8f	_	.	.	.	.	.	.
2d	_	.	.	.	.	.	.
4r	.	.	.	.	.	.	.
=97	=97	=97	=97	=97	=97	=97	=97
8r	.	2E-M	newline	voice	.	188.678	E-:maj
8B-	You	.	.	.	.	.	.
8B-	bring	.	.	.	.	.	.
8B-	us	.	.	.	.	.	.
4.c	joy	2FM	.	voice	.	189.653	F:maj
8B-	in	.	.	.	.	.	.
=98	=98	=98	=98	=98	=98	=98	=98
8B-	Crack-	4Gm	.	voice	.	190.628	G:min
8B-	-er-	.	.	.	.	.	.
4A	-box	4FM	.	voice	.	191.116	F:maj
8G	Pa-	2E-M	.	voice	.	191.603	E-:maj
4B-	-lace.	.	.	.	.	.	.
[8B-	No	.	.	.	.	.	.
=99	=99	=99	=99	=99	=99	=99	=99
8B-]	_	1E-mm	.	voice	.	192.579	E-:min7
4B-	mat-	.	.	.	.	.	.
8B-	-ter	.	.	.	.	.	.
8G-	where	.	.	.	.	.	.
4A-	you	.	.	.	.	.	.
[8B-	roam	.	.	.	.	.	.
=100	=100	=100	=100	=100	=100	=100	=100
8B-]	_	1E-mm	.	voice	.	194.529	E-:min7
8d-	know	.	.	.	.	.	.
8d-	our	.	.	.	.	.	.
[8d-	love	.	.	.	.	.	.
8d-]	_	.	.	.	.	.	.
4d-	is	.	.	.	.	.	.
[8c	true.	.	.	.	C	.	.
=101	=101	=101	=101	=101	=101	=101	=101
*>Letter>B2	*>Letter>B2	*>Letter>B2	*>Letter>B2	*>Letter>B2	*>Letter>B2	*>Letter>B2	*>Letter>B2
*>Label>Chorus	*>Label>Chorus	*>Label>Chorus	*>Label>Chorus	*>Label>Chorus	*>Label>Chorus	*>Label>Chorus	*>Label>Chorus
8c]	_	2B-M	newline	voice	.	196.48	B-:maj
4.B-	_	.	.	.	.	.	.
2r	.	2FM	.	voice	.	197.431	F:maj
=102	=102	=102	=102	=102	=102	=102	=102
1r	.	4Gm	.	voice	.	198.382	G:min
.	.	4FM	.	voice	.	198.858	F:maj
.	.	2E-M	.	voice	.	199.334	E-:maj
=103	=103	=103	=103	=103	=103	=103	=103
1r	.	2B-M	.	voice	.	200.285	B-:maj
.	.	2FM	.	voice	.	201.237	F:maj
=104	=104	=104	=104	=104	=104	=104	=104
1r	.	1Dm	.	voice	.	202.188	D:min
=105	=105	=105	=105	=105	=105	=105	=105
8r	.	2E-M	newline	voice	.	204.091	E-:maj
8B-	You	.	.	.	.	.	.
8B-	bring	.	.	.	.	.	.
8B-	such	.	.	.	.	.	.
4.c	joy	2FM	.	voice	.	205.059	F:maj
8B-	in	.	.	.	.	.	.
=106	=106	=106	=106	=106	=106	=106	=106
8B-	Crack-	4Gm	.	voice	.	206.027	G:min
8B-	-er-	.	.	.	.	.	.
4A	-box	4FM	.	voice	.	206.511	F:maj
8G	Pa-	2E-M	.	voice	.	206.995	E-:maj
4B-	-lace.	.	.	.	.	.	.
[8B-	No	.	.	.	.	.	.
=107	=107	=107	=107	=107	=107	=107	=107
8B-]	_	1E-mm	.	voice	.	207.963	E-:min7
4B-	mat-	.	.	.	.	.	.
8B-	-ter	.	.	.	.	.	.
8G-	where	.	.	.	.	.	.
4A-	you	.	.	.	.	.	.
[8B-	roam	.	.	.	.	.	.
=108	=108	=108	=108	=108	=108	=108	=108
8B-]	_	1E-mm	.	voice	.	209.9	E-:min7
8d-	know	.	.	.	.	.	.
8d-	our	.	.	.	.	.	.
[8d-	love,	.	.	.	.	.	.
8d-]	_	.	.	.	.	.	.
4.B-	_	.	.	.	.	.	.
=109	=109	=109	=109	=109	=109	=109	=109
1r	.	1E-mm	.	voice	.	211.836	E-:min7
=110	=110	=110	=110	=110	=110	=110	=110
8r	.	1E-mm	.	voice	.	213.772	E-:min7
8d-	know	.	.	.	.	.	.
8d-	our	.	.	.	.	.	.
[8d-	love	.	.	.	.	.	.
8d-]	_	.	.	.	.	.	.
4B-	is	.	.	.	.	.	.
[8d	true.	.	.	.	C	.	.
=111	=111	=111	=111	=111	=111	=111	=111
*>Letter>C2	*>Letter>C2	*>Letter>C2	*>Letter>C2	*>Letter>C2	*>Letter>C2	*>Letter>C2	*>Letter>C2
*>Label>Outro	*>Label>Outro	*>Label>Outro	*>Label>Outro	*>Label>Outro	*>Label>Outro	*>Label>Outro	*>Label>Outro
2d]	_	2E-M	newline	guitar	.	215.708	E-:maj
2c	_	2FM	.	guitar	.	216.682	F:maj
=112	=112	=112	=112	=112	=112	=112	=112
1r	.	4Gm	.	guitar	.	217.656	G:min
.	.	4FM	.	guitar	.	218.144	F:maj
.	.	2E-M	.	guitar	.	218.631	E-:maj
=113	=113	=113	=113	=113	=113	=113	=113
1r	.	1E-mm	.	guitar	.	219.605	E-:min7
=114	=114	=114	=114	=114	=114	=114	=114
1r	.	1E-mm	.	guitar	.	221.554	E-:min7
=115	=115	=115	=115	=115	=115	=115	=115
1r	.	1B-M	.	guitar	.	223.502	B-:maj
r;	.	1r;	.	r	.	234.22	N.C.
r;	.	1r;	.	r	.	238.281	N.C.
*-	*-	*-	*-	*-	*-	*-	*-
!!!BillboardChartDate: 1977/02/05
!!!BillboardPeak: 19
!!!BillboardWeeksOnChart: 11
!!!COC: George Harrison
!!!ENC: Nathaniel Condit-Schultz
!!!EST: Awating manual error checking and editing.
!!!OTL: Crackerbox Palace
!!!RDF**chordsym: original McGill chord annotation + (implied pitch class set, with bass pitch in first position)
!!!RDF**harmony: **recip + pitch class of root + harmonic quality
!!!RDF**leadinstrument: original McGill primary instrumentation annotation
!!!RDF**phrase: newline = linebreak in original McGill transcription
!!!RDF**timestamp: McGill audio timestamp in seconds
!!!RDT: 2017/01/12/
!!!SampleActualRank: 49
!!!SampleID#: 1282
!!!SampleTargetRank: 49
